flaticon/religion/holy-star.svg

<svg xmlns="http://www.w3.org/2000/svg" width="32" height="32" viewBox="0 0 24 24">
    <path d="M22.710938 10.953125C22.695312 10.949219 22.679688 10.949219 22.664062 10.949219L15.296875 10.582031 15.675781 10.257812C16.191406 9.742188 16.191406 8.902344 15.675781 8.386719 15.425781 8.136719 15.09375 8 14.738281 8 14.386719 8 14.054688 8.136719 13.824219 8.367188L13.332031 8.796875 12.957031 1.226562C12.910156.675781 12.320312 0 11.695312 0 11.050781 0 10.519531.707031 10.4375 1.195312 10.4375 1.210938 10.433594 1.226562 10.433594 1.242188L10.070312 8.539062 10.019531 8.472656C10.007812 8.460938 9.996094 8.449219 9.984375 8.4375 9.46875 7.921875 8.628906 7.921875 8.113281 8.4375 7.863281 8.6875 7.726562 9.019531 7.726562 9.371094 7.726562 9.714844 7.859375 10.042969 8.097656 10.289062L8.328125 10.574219 1.132812 10.949219C.519531 11 .09375 11.660156.09375 12.21875.09375 12.796875.5625 13.378906 1.101562 13.46875 1.117188 13.46875 1.132812 13.472656 1.148438 13.472656L8.300781 13.847656 8.066406 14.125C7.550781 14.640625 7.550781 15.480469 8.066406 15.996094 8.566406 16.496094 9.410156 16.523438 9.964844 15.964844L10.070312 15.835938 10.433594 22.773438C10.480469 23.324219 11.070312 24 11.695312 24 12.425781 24 12.871094 23.300781 12.953125 22.804688 12.957031 22.792969 12.957031 22.777344 12.957031 22.761719L13.359375 15.613281 13.796875 15.992188C14.316406 16.507812 15.152344 16.507812 15.667969 15.992188 16.183594 15.476562 16.183594 14.636719 15.640625 14.09375L15.328125 13.835938 22.679688 13.472656C23.230469 13.425781 23.90625 12.835938 23.90625 12.210938 23.90625 11.597656 23.195312 11.035156 22.710938 10.953125zM22.621094 12.632812L14.691406 13.023438C14.585938 13.03125 14.484375 13.039062 14.382812 13.042969L14.199219 13.054688C14.023438 13.0625 13.875 13.179688 13.824219 13.34375 13.769531 13.507812 13.820312 13.6875 13.957031 13.796875L15.074219 14.714844C15.261719 14.902344 15.261719 15.207031 15.074219 15.394531 14.886719 15.582031 14.582031 15.582031 14.371094 15.375L13.257812 14.417969C13.136719 14.3125 12.964844 14.285156 12.820312 14.347656 12.671875 14.410156 12.574219 14.550781 12.566406 14.710938L12.554688 14.878906C12.550781 14.976562 12.546875 15.074219 12.539062 15.175781L12.121094 22.6875C12.078125 22.882812 11.890625 23.15625 11.695312 23.15625 11.566406 23.15625 11.289062 22.878906 11.273438 22.714844L10.878906 15.113281 10.851562 14.710938C10.84375 14.539062 10.726562 14.390625 10.5625 14.335938 10.519531 14.324219 10.476562 14.316406 10.433594 14.316406 10.308594 14.316406 10.191406 14.371094 10.109375 14.46875L9.339844 15.402344C9.160156 15.582031 8.84375 15.582031 8.660156 15.402344 8.476562 15.214844 8.476562 14.910156 8.683594 14.695312L9.492188 13.746094C9.59375 13.625 9.621094 13.453125 9.554688 13.308594 9.492188 13.160156 9.351562 13.0625 9.191406 13.054688L9 13.042969C8.882812 13.039062 8.765625 13.03125 8.636719 13.023438L1.222656 12.632812C1.105469 12.597656.933594 12.378906.933594 12.21875.933594 12.027344 1.09375 11.796875 1.191406 11.789062L8.632812 11.398438C8.753906 11.390625 8.875 11.382812 8.996094 11.378906L9.195312 11.367188C9.351562 11.359375 9.492188 11.261719 9.554688 11.117188 9.617188 10.972656 9.597656 10.804688 9.496094 10.683594L8.738281 9.742188C8.730469 9.730469 8.71875 9.722656 8.710938 9.710938 8.617188 9.621094 8.570312 9.5 8.570312 9.371094 8.570312 9.242188 8.617188 9.121094 8.710938 9.03125 8.890625 8.847656 9.1875 8.84375 9.375 9.015625L10.101562 9.945312C10.210938 10.082031 10.390625 10.136719 10.558594 10.085938 10.726562 10.03125 10.84375 9.878906 10.851562 9.707031L10.863281 9.492188C10.867188 9.371094 10.875 9.25 10.882812 9.121094L11.273438 1.3125C11.320312 1.117188 11.582031.84375 11.695312.84375 11.824219.84375 12.105469 1.121094 12.117188 1.285156L12.503906 9.054688C12.511719 9.207031 12.519531 9.359375 12.527344 9.511719L12.539062 9.707031C12.546875 9.867188 12.648438 10.007812 12.796875 10.070312 12.941406 10.132812 13.113281 10.105469 13.234375 10L14.398438 8.984375C14.582031 8.800781 14.898438 8.800781 15.078125 8.984375 15.265625 9.171875 15.265625 9.476562 15.105469 9.640625L13.949219 10.628906C13.816406 10.738281 13.769531 10.917969 13.824219 11.082031 13.878906 11.246094 14.027344 11.359375 14.199219 11.367188L14.382812 11.378906C14.484375 11.382812 14.585938 11.386719 14.695312 11.394531L22.59375 11.789062C22.773438 11.832031 23.050781 12.09375 23.066406 12.210938 23.0625 12.339844 22.789062 12.617188 22.621094 12.632812zM.152344 19.367188L2.433594 21.648438 4.710938 19.367188 2.433594 17.089844zM2.433594 20.457031L1.34375 19.367188 2.433594 18.28125 3.523438 19.367188zM22.398438 3.789062L20.117188 1.511719 17.835938 3.789062 20.117188 6.070312zM20.117188 2.699219L21.207031 3.789062 20.117188 4.878906 19.027344 3.789062zM20.117188 2.699219"/>
</svg>

<svg xmlns="http://www.w3.org/2000/svg" width="32" height="32" viewBox="0 0 24 24">
    <path d="M22.71 10.953c-.015-.004-.03-.004-.046-.004l-7.367-.367.379-.324a1.325 1.325 0 0 0 0-1.871A1.314 1.314 0 0 0 14.738 8c-.351 0-.683.137-.914.367l-.492.43-.375-7.57C12.91.676 12.32 0 11.695 0c-.644 0-1.175.707-1.258 1.195 0 .016-.003.032-.003.047L10.07 8.54l-.05-.066-.036-.036a1.325 1.325 0 0 0-1.87 0 1.317 1.317 0 0 0-.016 1.852l.23.285-7.195.375C.52 11 .093 11.66.093 12.22c0 .578.47 1.16 1.009 1.25.015 0 .03.004.046.004l7.153.375-.235.277a1.325 1.325 0 0 0 0 1.871c.5.5 1.344.527 1.899-.031l.105-.13.364 6.938c.046.551.636 1.227 1.261 1.227.73 0 1.176-.7 1.258-1.195.004-.012.004-.028.004-.043l.402-7.149.438.38c.52.515 1.355.515 1.871 0 .516-.516.516-1.356-.027-1.9l-.313-.257 7.352-.363c.55-.047 1.226-.637 1.226-1.262 0-.613-.71-1.176-1.195-1.258zm-.089 1.68l-7.93.39c-.105.008-.207.016-.308.02l-.184.012a.411.411 0 0 0-.375.289.41.41 0 0 0 .133.453l1.117.918a.481.481 0 0 1 0 .68c-.187.187-.492.187-.703-.02l-1.113-.957a.418.418 0 0 0-.692.293l-.011.168c-.004.098-.008.195-.016.297l-.418 7.511c-.043.196-.23.47-.426.47-.129 0-.406-.278-.422-.442l-.394-7.602-.027-.402a.42.42 0 0 0-.743-.242l-.77.933a.496.496 0 0 1-.679 0c-.183-.187-.183-.492.024-.707l.808-.949a.416.416 0 0 0 .063-.437.415.415 0 0 0-.364-.254L9 13.043c-.117-.004-.234-.012-.363-.02l-7.414-.39c-.118-.035-.29-.254-.29-.414 0-.192.16-.422.258-.43l7.442-.39c.12-.008.242-.016.363-.02l.2-.012a.416.416 0 0 0 .359-.25.416.416 0 0 0-.059-.433l-.758-.942c-.008-.012-.02-.02-.027-.031a.463.463 0 0 1-.14-.34.48.48 0 0 1 .805-.355l.726.93c.109.136.289.19.457.14a.423.423 0 0 0 .293-.379l.011-.215c.004-.12.012-.242.02-.37l.39-7.81c.047-.195.309-.468.422-.468.13 0 .41.277.422.441l.387 7.77.023.457.012.195c.008.16.11.3.258.363a.418.418 0 0 0 .437-.07l1.164-1.016a.488.488 0 0 1 .68 0c.188.188.188.493.027.657l-1.156.988a.414.414 0 0 0-.125.453.415.415 0 0 0 .375.285l.184.012c.101.004.203.008.312.016l7.899.394c.18.043.457.305.472.422-.003.129-.277.406-.445.422zm0 0M.152 19.367l2.282 2.281 2.277-2.28-2.277-2.278zm2.282 1.09l-1.09-1.09 1.09-1.086 1.09 1.086zm0 0M22.398 3.79l-2.28-2.278-2.282 2.277 2.281 2.281zm-2.28-1.09l1.089 1.09-1.09 1.089-1.09-1.09zm0 0"/>
</svg>
